usr/share/icons/biglinux-icons-material/24/actions/im-google-talk.svg

<svg xmlns="http://www.w3.org/2000/svg" viewBox="0 0 24 24">
  <defs id="defs3051">
    <style type="text/css" id="current-color-scheme">
      .ColorScheme-Text {
        color:#dedede;
      }
      </style>
  </defs>
 <path style="fill:currentColor;fill-opacity:1;stroke:none" 
     d="M 12 4 C 7.5818339 4 3.999999 6.6864 4 10 C 4 13.2629 7.4761023 15.911687 11.800781 15.992188 L 11.800781 20 C 20.017202 15.2563 20 12.2658 20 10 C 20 6.6864 16.418165 4 12 4 z M 8.2597656 7.0644531 L 11.341797 7.0644531 L 11.341797 10.148438 L 11.332031 10.148438 C 11.338531 10.221438 11.341797 10.294841 11.341797 10.369141 C 11.341797 11.632541 10.375082 12.667997 9.140625 12.779297 L 9.140625 11.886719 C 9.886623 11.779019 10.460937 11.144941 10.460938 10.369141 C 10.460938 10.294141 10.451836 10.220638 10.441406 10.148438 L 8.2597656 10.148438 L 8.2597656 7.0644531 z M 12.658203 7.0644531 L 15.740234 7.0644531 L 15.740234 10.148438 L 15.730469 10.148438 C 15.736969 10.221438 15.740234 10.294841 15.740234 10.369141 C 15.740234 11.632541 14.773521 12.667997 13.539062 12.779297 L 13.539062 11.886719 C 14.285061 11.779019 14.859375 11.144941 14.859375 10.369141 C 14.859375 10.294141 14.852277 10.220638 14.841797 10.148438 L 12.658203 10.148438 L 12.658203 7.0644531 z "
     class="ColorScheme-Text"
     />
</svg>

<svg xmlns="http://www.w3.org/2000/svg" viewBox="0 0 24 24"><path d="M12 4c-4.418 0-8 2.686-8 6 0 3.263 3.476 5.912 7.8 5.992V20c8.217-4.744 8.2-7.734 8.2-10 0-3.314-3.582-6-8-6zM8.26 7.064h3.082v3.084h-.01a2.42 2.42 0 0 1-2.191 2.63v-.891a1.535 1.535 0 0 0 1.32-1.518c0-.075-.01-.148-.02-.22H8.26V7.063zm4.398 0h3.082v3.084h-.01a2.42 2.42 0 0 1-2.191 2.63v-.891a1.535 1.535 0 0 0 1.303-1.739h-2.184V7.064z" style="fill:currentColor;fill-opacity:1;stroke:none;color:#dedede"/></svg>
